X: 34218
T: Reel St Paul
R: reel
M: 4/4
K: Gmajor
GA|:Bc AB G2 g2|efge cedc|B2 dB GBAB|c2 AG Aedc|
Bc AB G2 g2|efge cedc|B2 dB GBAB|1 cADA G2 GA:|2 cADA GGAB||
|:c3 d e2 dc|BdGB dBGB|AGAB c2 BA|GDGA BGAB|
c3 d e2 dc|BdGB dBGB|AGAB c2 BA|1 GgdB GGAB:|2 GgdB G2 GA||

